bs-navigator/img/icons/vk-f.svg

<svg width="30" height="18" viewBox="0 0 30 18" fill="none" xmlns="http://www.w3.org/2000/svg">
<g clip-path="url(#clip0_20_119)">
<path d="M14.9011 17.9999C19.0963 17.9999 17.6006 15.3621 17.9241 14.6037C17.9194 14.0374 17.9147 13.4921 17.9336 13.1615C18.774 13.5465 19.5205 14.106 20.1221 14.8021C22.1218 16.8059 22.6327 17.9999 24.2489 17.9999H27.2224C27.5397 18.0248 27.8583 17.973 28.1508 17.8488C28.4432 17.7247 28.7007 17.532 28.9008 17.2874C29.0752 17.0384 29.1858 16.7514 29.2233 16.4509C29.2607 16.1504 29.2238 15.8454 29.1157 15.5621C28.452 13.4929 24.5835 9.92092 24.3426 9.54443C24.3788 9.47519 24.4371 9.38263 24.467 9.3344C25.2306 8.3325 28.145 3.99585 28.5741 2.26041C28.5747 2.25734 28.5747 2.25416 28.5741 2.25108C28.6733 1.98874 28.7069 1.70657 28.672 1.42864C28.637 1.1507 28.5345 0.885241 28.3733 0.654883C28.1844 0.429045 27.9431 0.25158 27.67 0.137556C27.3969 0.0235313 27.0999 -0.0236857 26.8043 -8.68691e-05H23.8301C23.3701 -0.0169409 22.9165 0.109883 22.5336 0.362361C22.1507 0.614839 21.8582 0.980126 21.6974 1.40631C21.0582 3.0204 19.2625 6.33958 17.9186 7.51417C17.8777 5.84952 17.9052 4.57926 17.9273 3.63492C17.969 1.78902 18.1091 -8.68691e-05 16.1843 -8.68691e-05H11.5104C10.3043 -8.68691e-05 9.14863 1.3083 10.3996 2.86093C11.4923 4.22143 10.7932 4.97986 11.0294 8.75566C9.37868 6.66253 8.12268 4.29296 7.32142 1.76024C6.99629 0.847018 6.50662 -8.68691e-05 5.12578 -8.68691e-05H2.15233C1.90504 -0.0330048 1.65344 -0.0117696 1.41538 0.0621137C1.17733 0.135997 0.95863 0.260719 0.7748 0.427439C0.590971 0.594159 0.446508 0.798794 0.351653 1.02684C0.256798 1.25488 0.213874 1.50075 0.225923 1.74702C0.225923 4.20043 5.69811 17.9999 14.9011 17.9999ZM5.12578 1.80147C5.38793 1.80147 5.4147 1.80147 5.60915 2.34987C6.79003 5.80985 9.44543 10.929 11.3836 10.929C12.8393 10.929 12.8393 9.44719 12.8393 8.88868V4.44624C12.8278 3.48114 12.4847 2.54856 11.8662 1.80147L16.1048 1.80614C16.1048 1.82636 16.0804 6.71996 16.1166 7.90544C16.1166 9.58876 17.4628 10.5502 19.564 8.44218C21.1376 6.51752 22.4214 4.3783 23.3759 2.09084C23.4664 1.87459 23.5451 1.80147 23.8301 1.80147H26.8161C26.8161 1.80147 26.8161 1.80847 26.8161 1.81236C26.5445 3.07251 23.8608 7.0879 22.9625 8.33405C22.9484 8.3535 22.935 8.37372 22.9216 8.39395C22.6467 8.72651 22.5013 9.14522 22.5115 9.57447C22.5218 10.0037 22.6871 10.4152 22.9775 10.7346C23.0476 10.8186 23.2302 11.0154 23.4955 11.2892C24.3221 12.1363 27.157 15.0331 27.4082 16.1851C27.2413 16.2116 27.0602 16.1921 24.2505 16.1984C23.6522 16.1984 23.1845 15.31 21.3998 13.5225C19.7954 11.9722 18.7539 11.3382 17.8053 11.3382C15.9639 11.3382 16.0977 12.8224 16.115 14.6177C16.1213 16.5624 16.1087 15.9487 16.1221 16.0708C15.7258 16.181 15.3134 16.2236 14.9027 16.1968C7.23246 16.1999 2.24129 4.11487 2.0492 1.80458C2.11533 1.79836 3.03011 1.80458 5.12578 1.80458V1.80147Z" fill="#CAE3B7"/>
</g>
<defs>
<clipPath id="clip0_20_119">
<rect width="29" height="18" fill="white" transform="translate(0.225952)"/>
</clipPath>
</defs>
</svg>

<svg width="30" height="18" fill="none" xmlns="http://www.w3.org/2000/svg"><g clip-path="url(#clip0_20_119)"><path d="M14.901 18c4.195 0 2.7-2.638 3.023-3.396-.005-.567-.01-1.112.01-1.442.84.384 1.586.944 2.188 1.64 2 2.004 2.51 3.198 4.127 3.198h2.973a1.98 1.98 0 001.679-.713 1.86 1.86 0 00.215-1.725c-.664-2.07-4.532-5.641-4.773-6.018.036-.069.094-.161.124-.21.764-1.002 3.678-5.338 4.107-7.074v-.009a1.72 1.72 0 00-.2-1.596A1.863 1.863 0 0026.804 0H23.83a2.21 2.21 0 00-1.296.362 2.168 2.168 0 00-.837 1.044c-.639 1.614-2.434 4.934-3.778 6.108a76.14 76.14 0 01.008-3.88C17.97 1.79 18.11 0 16.184 0H11.51c-1.206 0-2.36 1.308-1.11 2.86 1.092 1.361.393 2.12.63 5.896A22.026 22.026 0 017.32 1.76C6.996.847 6.507 0 5.126 0H2.152A1.72 1.72 0 00.775.427a1.68 1.68 0 00-.55 1.32C.226 4.2 5.699 18 14.902 18zM5.126 1.8c.262 0 .289 0 .483.549 1.181 3.46 3.836 8.579 5.775 8.579 1.455 0 1.455-1.482 1.455-2.04V4.446a4.226 4.226 0 00-.973-2.645l4.239.005c0 .02-.025 4.914.012 6.1 0 1.683 1.346 2.644 3.447.536a25.625 25.625 0 003.812-6.351c.09-.216.17-.29.454-.29h2.986v.011c-.271 1.26-2.955 5.276-3.854 6.522l-.04.06a1.786 1.786 0 00.055 2.34c.07.085.253.281.518.555.827.847 3.662 3.744 3.913 4.896-.167.027-.348.007-3.158.013-.598 0-1.066-.888-2.85-2.675-1.605-1.55-2.646-2.185-3.595-2.185-1.841 0-1.707 1.484-1.69 3.28.006 1.944-.006 1.33.007 1.453-.396.11-.809.153-1.22.126C7.233 16.2 2.243 4.115 2.05 1.805c.066-.007.981 0 3.077 0V1.8z" fill="#CAE3B7"/></g><defs><clipPath id="clip0_20_119"><path fill="#fff" transform="translate(.226)" d="M0 0h29v18H0z"/></clipPath></defs></svg>
